packages/elvis-assets-icons/icons/svg/src/bin.svg

<svg width="24" height="24" viewBox="0 0 24 24" fill="none" xmlns="http://www.w3.org/2000/svg">
<g clip-path="url(#clip0)">
<path fill-rule="evenodd" clip-rule="evenodd" d="M9.42848 0.849976C8.7465 0.849976 8.09245 1.12089 7.61021 1.60313C7.12797 2.08537 6.85706 2.73942 6.85706 3.4214V4.27855H4.28578H0.857143C0.383756 4.27855 0 4.6623 0 5.13569C0 5.60908 0.383756 5.99283 0.857143 5.99283H3.42864V20.5643C3.42864 21.2462 3.69956 21.9003 4.1818 22.3825C4.66403 22.8648 5.31808 23.1357 6.00007 23.1357H18.0001C18.6821 23.1357 19.3361 22.8648 19.8183 22.3825C20.3006 21.9003 20.5715 21.2462 20.5715 20.5643V5.99283H23.1429C23.6162 5.99283 24 5.60908 24 5.13569C24 4.6623 23.6162 4.27855 23.1429 4.27855H19.7144H17.1428V3.4214C17.1428 2.73942 16.8719 2.08537 16.3896 1.60313C15.9074 1.12089 15.2533 0.849976 14.5713 0.849976H9.42848ZM7.71262 5.99283C7.71314 5.99283 7.71367 5.99283 7.7142 5.99283H16.2856C16.2862 5.99283 16.2867 5.99283 16.2872 5.99283H18.8572V20.5643C18.8572 20.7916 18.7669 21.0096 18.6062 21.1704C18.4454 21.3311 18.2274 21.4214 18.0001 21.4214H6.00007C5.77274 21.4214 5.55472 21.3311 5.39398 21.1704C5.23323 21.0096 5.14293 20.7916 5.14293 20.5643V5.99283H7.71262ZM15.4285 4.27855V3.4214C15.4285 3.19408 15.3382 2.97606 15.1774 2.81531C15.0167 2.65457 14.7987 2.56426 14.5713 2.56426H9.42848C9.20116 2.56426 8.98314 2.65457 8.82239 2.81531C8.66165 2.97606 8.57134 3.19408 8.57134 3.4214V4.27855H15.4285ZM8.57138 17.1357V10.2785C8.57138 9.80516 8.95513 9.4214 9.42852 9.4214C9.90191 9.4214 10.2857 9.80516 10.2857 10.2785V17.1357C10.2857 17.6091 9.90191 17.9928 9.42852 17.9928C8.95513 17.9928 8.57138 17.6091 8.57138 17.1357ZM15.4286 17.1357V10.2785C15.4286 9.80516 15.0449 9.4214 14.5715 9.4214C14.0981 9.4214 13.7143 9.80516 13.7143 10.2785V17.1357C13.7143 17.6091 14.0981 17.9928 14.5715 17.9928C15.0449 17.9928 15.4286 17.6091 15.4286 17.1357Z" fill="black"/>
</g>
<defs>
<clipPath id="clip0">
<rect width="24" height="24" fill="white"/>
</clipPath>
</defs>
</svg>

<svg width="24" height="24" fill="none" xmlns="http://www.w3.org/2000/svg"><g clip-path="url(#clip0)"><path fill-rule="evenodd" clip-rule="evenodd" d="M9.428.85a2.571 2.571 0 00-2.57 2.571v.858H.856a.857.857 0 100 1.714H3.43v14.571A2.571 2.571 0 006 23.136h12a2.57 2.57 0 002.572-2.572V5.993h2.57a.857.857 0 000-1.714H17.144V3.42A2.571 2.571 0 0014.57.85H9.428zM7.713 5.993H18.857v14.571a.857.857 0 01-.857.857H6a.857.857 0 01-.857-.857V5.993h2.57zm7.715-1.714V3.42a.857.857 0 00-.857-.857H9.428a.857.857 0 00-.857.857v.858h6.857zM8.572 17.136v-6.857a.857.857 0 011.715 0v6.857a.857.857 0 01-1.715 0zm6.858 0v-6.857a.857.857 0 10-1.715 0v6.857a.857.857 0 001.715 0z" fill="#000"/></g><defs><clipPath id="clip0"><path fill="#fff" d="M0 0h24v24H0z"/></clipPath></defs></svg>
